other/grinsia.svg

<?xml version="1.0" encoding="UTF-8"?><svg id="b" xmlns="http://www.w3.org/2000/svg" viewBox="0 0 48 48"><defs><style>.d{fill:none;stroke:#fff;stroke-linecap:round;stroke-linejoin:round;}</style></defs><path id="c" class="d" d="m39.203,39.203l-13.722-11.627-1.481,17.924-1.481-17.925-13.722,11.628,11.627-13.722-17.924-1.481,17.925-1.481-11.628-13.722,13.722,11.627,1.481-17.924,1.481,17.925,13.722-11.628-11.627,13.722,17.924,1.481-17.925,1.481,11.628,13.722Zm-11.666-15.203c.0007,1.9534-1.5824,3.5375-3.5358,3.5382-1.9534.0007-3.5375-1.5824-3.5382-3.5358v-.0024c.0007-1.9534,1.5848-3.5365,3.5382-3.5358,1.9525.0007,3.5351,1.5833,3.5358,3.5358Z"/></svg>

<svg xmlns="http://www.w3.org/2000/svg" xml:space="preserve" id="svg990" width="48" height="48" version="1.1"><defs id="defs987"><style id="style1174">.a{fill:none;stroke:#fff;stroke-linecap:round;stroke-linejoin:round}</style></defs><path id="path708" d="M39.203 39.203 25.481 27.576 24 45.5l-1.481-17.925L8.797 39.203l11.627-13.722L2.5 24l17.925-1.481L8.797 8.797l13.722 11.627L24 2.5l1.481 17.925L39.203 8.797 27.576 22.519 45.5 24l-17.925 1.481ZM27.537 24a3.537 3.537 0 1 1-7.074 0 3.537 3.537 0 0 1 7.074 0z" style="fill:none;stroke:#fff;stroke-linecap:round;stroke-linejoin:round;stop-color:#000"/></svg>
